X: 22088
T: Knocknahoon
R: waltz
M: 3/4
K: Gminor
D GA|B4 AG|A D3 DC|B,4 A,G,|A,3 D GA|
B4 AG|A D3 DC|!fermata!B,3 A,3 G,|!fermata!G,3 D GA|
B4 AG|AB !fermata!c2 dc|B4 AG|A4 BA|
G3 B AG|A/d/D !fermata!^F2 GC|B,4 !fermata!A,G,|G,3|

